src/assets/images/icons/social/twitter.svg

<svg width="24" height="24" viewBox="0 0 24 24" fill="none" xmlns="http://www.w3.org/2000/svg">
<g clip-path="url(#clip0)">
<path d="M23.954 4.56897C23.069 4.95797 22.124 5.22297 21.129 5.34397C22.143 4.73297 22.923 3.76997 23.292 2.62097C22.341 3.17597 21.287 3.57997 20.165 3.80497C19.269 2.84597 17.992 2.24597 16.574 2.24597C13.857 2.24597 11.654 4.44897 11.654 7.16297C11.654 7.55297 11.699 7.92797 11.781 8.28697C7.691 8.09397 4.066 6.12997 1.64 3.16097C1.213 3.88297 0.974 4.72197 0.974 5.63597C0.974 7.34597 1.844 8.84897 3.162 9.73197C2.355 9.70597 1.596 9.48397 0.934 9.11597V9.17697C0.934 11.562 2.627 13.551 4.88 14.004C4.467 14.115 4.031 14.175 3.584 14.175C3.27 14.175 2.969 14.145 2.668 14.089C3.299 16.042 5.113 17.466 7.272 17.506C5.592 18.825 3.463 19.611 1.17 19.611C0.78 19.611 0.391 19.588 0 19.544C2.189 20.938 4.768 21.753 7.557 21.753C16.611 21.753 21.556 14.257 21.556 7.76697C21.556 7.55797 21.556 7.34697 21.541 7.13697C22.502 6.44797 23.341 5.57697 24.001 4.58897L23.954 4.56897Z" fill="#2C3038"/>
</g>
<defs>
<clipPath id="clip0">
<rect width="24" height="24" fill="white"/>
</clipPath>
</defs>
</svg>

<?xml version="1.0" encoding="utf-8"?>
<!-- Generator: Adobe Illustrator 16.0.0, SVG Export Plug-In . SVG Version: 6.00 Build 0)  -->
<!DOCTYPE svg PUBLIC "-//W3C//DTD SVG 1.1//EN" "http://www.w3.org/Graphics/SVG/1.1/DTD/svg11.dtd">
<svg version="1.1" id="Ebene_1" xmlns="http://www.w3.org/2000/svg" xmlns:xlink="http://www.w3.org/1999/xlink" x="0px" y="0px"
	 width="24px" height="24px" viewBox="0 0 24 24" enable-background="new 0 0 24 24" xml:space="preserve">
<g>
	<defs>
		<rect id="SVGID_1_" width="24" height="24"/>
	</defs>
	<clipPath id="SVGID_2_">
		<use xlink:href="#SVGID_1_"  overflow="visible"/>
	</clipPath>
	<g clip-path="url(#SVGID_2_)">
		<path fill="#FFFFFF" d="M23.954,4.569c-0.886,0.389-1.83,0.654-2.825,0.775c1.014-0.611,1.794-1.574,2.163-2.723
			c-0.951,0.555-2.005,0.959-3.127,1.184c-0.896-0.959-2.173-1.559-3.591-1.559c-2.717,0-4.92,2.203-4.92,4.917
			c0,0.39,0.045,0.765,0.127,1.124C7.691,8.094,4.066,6.13,1.64,3.161C1.213,3.883,0.974,4.722,0.974,5.636
			c0,1.71,0.87,3.213,2.188,4.096C2.355,9.706,1.596,9.484,0.934,9.116v0.061c0,2.385,1.693,4.374,3.946,4.827
			c-0.413,0.111-0.849,0.171-1.296,0.171c-0.314,0-0.615-0.03-0.916-0.086c0.631,1.953,2.445,3.377,4.604,3.417
			c-1.68,1.319-3.809,2.105-6.102,2.105c-0.39,0-0.779-0.023-1.17-0.067c2.189,1.394,4.768,2.209,7.557,2.209
			c9.054,0,14-7.496,14-13.986c0-0.209,0-0.42-0.016-0.63c0.961-0.688,1.8-1.56,2.46-2.548L23.954,4.569z"/>
	</g>
</g>
</svg>
